icons/KoraCustom/apps/scalable/org.kde.latte.spacer.svg

<svg clip-rule="evenodd" fill-rule="evenodd" stroke-linejoin="round" stroke-miterlimit="2" viewBox="0 0 48 48" xmlns="http://www.w3.org/2000/svg">
 <linearGradient id="a" x2="1" gradientTransform="matrix(0 -43.3454 43.3454 0 24 45.6774)" gradientUnits="userSpaceOnUse">
  <stop stop-color="#8242d2" offset="0"/>
  <stop stop-color="#a874ea" offset="1"/>
 </linearGradient>
 <path d="m39.44 2.332c3.438 0 6.228 2.79 6.228 6.228v30.88c0 3.438-2.79 6.228-6.228 6.228h-30.88c-3.438 0-6.228-2.79-6.228-6.228v-30.88c0-3.438 2.79-6.228 6.228-6.228z" fill="url(#a)"/>
 <g transform="matrix(1.0834 0 0 1.0834 -2.0016 -2.0016)" fill-rule="nonzero">
  <path d="m9 26c-.554 0-1 .446-1 1v12c0 .554.446 1 1 1h30c.554 0 1-.446 1-1v-12c0-.554-.446-1-1-1h-2c-.554 0-1 .446-1 1v9h-24v-9c0-.554-.446-1-1-1z" fill="#313131"/>
  <path d="m17 14-7 5 7 5v-3h14v3l7-5-7-5v3h-14z" fill="#dabcfc"/>
 </g>
</svg>

<svg xmlns="http://www.w3.org/2000/svg" width="48" height="48" version="1.1">
 <rect style="opacity:0.2" width="40" height="40" x="4" y="5" rx="2" ry="2"/>
 <rect style="fill:#a874ea" width="40" height="40" x="4" y="4" rx="2" ry="2"/>
 <path style="fill:#4f4f4f" d="M 9 26 C 8.446 26 8 26.446 8 27 L 8 37 L 8 39 C 8 39.554 8.446 40 9 40 L 11 40 L 39 40 C 39.554 40 40 39.554 40 39 L 40 37 L 40 27 C 40 26.446 39.554 26 39 26 L 37 26 C 36.446 26 36 26.446 36 27 L 36 36 L 12 36 L 12 27 C 12 26.446 11.554 26 11 26 L 9 26 z"/>
 <path style="opacity:0.2;fill:#ffffff" d="M 6 4 C 4.892 4 4 4.892 4 6 L 4 7 C 4 5.892 4.892 5 6 5 L 42 5 C 43.108 5 44 5.892 44 7 L 44 6 C 44 4.892 43.108 4 42 4 L 6 4 z"/>
 <path style="opacity:0.1;fill:#ffffff" d="M 8 39 L 8 40 C 8 40.554 8.446 41 9 41 L 11 41 L 39 41 C 39.554 41 40 40.554 40 40 L 40 39 C 40 39.554 39.554 40 39 40 L 11 40 L 9 40 C 8.446 40 8 39.554 8 39 z"/>
 <path style="opacity:0.2" d="m 17,15 -7,5 7,5 v -3 h 7 7 v 3 l 7,-5 -7,-5 v 3 h -7 -7 z"/>
 <path style="fill:#dabcfc" d="M 17 14 L 10 19 L 17 24 L 17 21 L 24 21 L 31 21 L 31 24 L 38 19 L 31 14 L 31 17 L 24 17 L 17 17 L 17 14 z"/>
</svg>
